Newaita-dark/actions/22/color-picker-white.svg

<?xml version="1.0" encoding="UTF-8"?>
<svg xmlns="http://www.w3.org/2000/svg" xmlns:xlink="http://www.w3.org/1999/xlink" width="22pt" height="22pt" viewBox="0 0 22 22" version="1.1">
<g id="surface1">
<path style=" stroke:none;fill-rule:nonzero;fill:rgb(25.882354%,64.705884%,96.078432%);fill-opacity:1;" d="M 9.097656 1.082031 C 6.367188 5.628906 3.636719 11.085938 3.636719 15.636719 C 3.636719 18.363281 5.457031 21.09375 9.097656 21.09375 C 12.734375 21.09375 14.554688 18.363281 14.554688 15.636719 C 14.554688 11.085938 11.503906 5.128906 9.097656 1.082031 Z M 11.941406 13.386719 C 12.679688 14.054688 13.144531 15.015625 13.144531 16.09375 C 13.144531 18.109375 11.519531 19.730469 9.503906 19.730469 C 8.859375 19.730469 8.253906 19.566406 7.730469 19.273438 C 7.792969 19.277344 7.851562 19.277344 7.914062 19.277344 C 10.308594 19.277344 12.234375 17.351562 12.234375 14.957031 C 12.234375 14.402344 12.132812 13.875 11.941406 13.386719 Z M 11.941406 13.386719 "/>
<path style=" stroke:none;fill-rule:nonzero;fill:rgb(74.117649%,74.117649%,74.117649%);fill-opacity:1;" d="M 17.28125 1.082031 C 15.265625 1.082031 13.644531 2.703125 13.644531 4.71875 C 13.644531 6.734375 15.265625 8.359375 17.28125 8.359375 C 19.296875 8.359375 20.921875 6.734375 20.921875 4.71875 C 20.921875 2.703125 19.296875 1.082031 17.28125 1.082031 Z M 17.28125 1.992188 C 18.792969 1.992188 20.011719 3.207031 20.011719 4.71875 C 20.011719 6.230469 18.792969 7.449219 17.28125 7.449219 C 15.769531 7.449219 14.554688 6.230469 14.554688 4.71875 C 14.554688 3.207031 15.769531 1.992188 17.28125 1.992188 Z M 17.28125 1.992188 "/>
<path style=" stroke:none;fill-rule:nonzero;fill:rgb(93.333334%,93.333334%,93.333334%);fill-opacity:1;" d="M 17.28125 1.992188 C 18.789062 1.992188 20.011719 3.210938 20.011719 4.71875 C 20.011719 6.226562 18.789062 7.449219 17.28125 7.449219 C 15.773438 7.449219 14.554688 6.226562 14.554688 4.71875 C 14.554688 3.210938 15.773438 1.992188 17.28125 1.992188 Z M 17.28125 1.992188 "/>
</g>
</svg>

<svg xmlns="http://www.w3.org/2000/svg" width="22pt" height="22pt" viewBox="0 0 22 22"><path d="M9.098 1.082c-2.73 4.547-5.461 10.004-5.461 14.555 0 2.726 1.82 5.457 5.46 5.457 3.637 0 5.458-2.73 5.458-5.457 0-4.551-3.051-10.508-5.457-14.555zm2.843 12.305a3.634 3.634 0 0 1 1.204 2.707 3.631 3.631 0 0 1-3.641 3.636 3.62 3.62 0 0 1-1.774-.457 4.31 4.31 0 0 0 4.504-4.316c0-.555-.101-1.082-.293-1.57zm0 0" fill="#42a5f5"/><path d="M17.281 1.082a3.628 3.628 0 0 0-3.636 3.637 3.631 3.631 0 0 0 3.636 3.64 3.634 3.634 0 0 0 3.64-3.64 3.631 3.631 0 0 0-3.64-3.637zm0 .91a2.722 2.722 0 0 1 2.73 2.727 2.726 2.726 0 0 1-2.73 2.73 2.722 2.722 0 0 1-2.726-2.73 2.72 2.72 0 0 1 2.726-2.727zm0 0" fill="#bdbdbd"/><path d="M17.281 1.992a2.727 2.727 0 1 1 0 5.457 2.727 2.727 0 0 1-2.726-2.73 2.724 2.724 0 0 1 2.726-2.727zm0 0" fill="#eee"/></svg>
